svg/tag_heart_outline.svg

<svg xmlns="http://www.w3.org/2000/svg" viewBox="0 0 24 24"><path d="M4 2a2 2 0 0 0-2 2v7c0 .55.22 1.05.59 1.42l9 9c.36.36.86.58 1.41.58s1.05-.22 1.41-.59l7-7c.37-.36.59-.86.59-1.41s-.23-1.06-.59-1.42l-9-9C12.05 2.22 11.55 2 11 2zm7 2 9 9-7 7-9-9V4zM6.5 5A1.5 1.5 0 0 0 5 6.5 1.5 1.5 0 0 0 6.5 8 1.5 1.5 0 0 0 8 6.5 1.5 1.5 0 0 0 6.5 5m4.45 5.5c-1.13 0-2.05.92-2.05 2.05 0 .57.23 1.07.6 1.45l3.5 3.5 3.5-3.5c.37-.37.6-.89.6-1.45a2.05 2.05 0 0 0-2.05-2.05c-.55 0-1.08.23-1.45.6l-.6.6-.6-.59c-.37-.38-.9-.61-1.45-.61"/></svg>

<?xml version="1.0" encoding="UTF-8"?><!DOCTYPE svg PUBLIC "-//W3C//DTD SVG 1.1//EN" "http://www.w3.org/Graphics/SVG/1.1/DTD/svg11.dtd"><svg xmlns="http://www.w3.org/2000/svg" xmlns:xlink="http://www.w3.org/1999/xlink" version="1.1" id="mdi-tag-heart-outline" width="24" height="24" viewBox="0 0 24 24"><path d="M4,2A2,2 0 0,0 2,4V11C2,11.55 2.22,12.05 2.59,12.42L11.59,21.42C11.95,21.78 12.45,22 13,22C13.55,22 14.05,21.78 14.41,21.41L21.41,14.41C21.78,14.05 22,13.55 22,13C22,12.45 21.77,11.94 21.41,11.58L12.41,2.58C12.05,2.22 11.55,2 11,2H4V2M11,4L20,13L13,20L4,11V4H11V4H11M6.5,5A1.5,1.5 0 0,0 5,6.5A1.5,1.5 0 0,0 6.5,8A1.5,1.5 0 0,0 8,6.5A1.5,1.5 0 0,0 6.5,5M10.95,10.5C9.82,10.5 8.9,11.42 8.9,12.55C8.9,13.12 9.13,13.62 9.5,14L13,17.5L16.5,14C16.87,13.63 17.1,13.11 17.1,12.55A2.05,2.05 0 0,0 15.05,10.5C14.5,10.5 13.97,10.73 13.6,11.1L13,11.7L12.4,11.11C12.03,10.73 11.5,10.5 10.95,10.5Z" /></svg>
